X:40
T:The Cameronian
M:4/4
L:1/8
R:Reel
K:D
B|:A2FA DAFA|GFEF G2B2|A2FA DAFA|GBAG FDDB|
|A2FA DAFA|GFEF GBdB|A2FA DAFA|GFEG FD D2:|
|:Addc d3A|(3Bcd ef gfed|cAeA fAed|cdef gfeg|
|faeg faeg|fedc defg|afge fdec|dBAG FDDB:|
